packages/core/src/svgs/tokens/branded/MBD.svg

<svg width="24" height="24" viewBox="0 0 24 24" fill="none" xmlns="http://www.w3.org/2000/svg">
<path d="M12.0017 17.5544C15.0694 17.5544 17.5562 15.192 17.5562 12.2777C17.5562 9.36349 15.0694 7.00102 12.0017 7.00102C8.93408 7.00102 6.44727 9.36349 6.44727 12.2777C6.44727 15.192 8.93408 17.5544 12.0017 17.5544Z" fill="url(#paint0_linear_364_11976)"/>
<path fill-rule="evenodd" clip-rule="evenodd" d="M12.1354 21.998C17.5788 21.998 22.0001 17.5711 22.0001 12.1111C22.0001 6.65109 17.5843 2.22418 12.1354 2.22418C10.8381 2.22492 9.55356 2.48126 8.35523 2.97859C7.15696 3.47592 6.06842 4.20448 5.15181 5.12263C4.2352 6.0408 3.50848 7.13056 3.01318 8.32967C2.51787 9.52883 2.26369 10.8137 2.26514 12.1111C2.26514 17.5711 6.68093 21.998 12.1354 21.998ZM12.1354 21.7203C17.4288 21.7203 21.7223 17.4156 21.7223 12.1111C21.7223 6.80661 17.4288 2.50191 12.1354 2.50191C10.8745 2.50264 9.62614 2.7518 8.46152 3.23517C7.29694 3.71854 6.23902 4.42665 5.34819 5.31902C4.45737 6.21138 3.7511 7.27054 3.26975 8.43596C2.78841 9.60141 2.54141 10.8503 2.54287 12.1111C2.54287 17.4156 6.83645 21.7203 12.1354 21.7203Z" fill="#114ED2"/>
<path d="M21.2834 14.083C20.9683 15.5331 20.3145 16.8881 19.3751 18.0369C18.4357 19.1859 17.2375 20.096 15.8789 20.6928L16.0677 21.126C17.4874 20.4897 18.7389 19.5306 19.7224 18.3252C20.706 17.1197 21.3946 15.7013 21.7332 14.1829L21.289 14.083H21.2834Z" fill="#7954F7"/>
<path d="M3.77026 7.83417L3.07039 7.48425C2.37131 8.87318 2.00487 10.4057 2.00005 11.9606C1.99523 13.5156 2.35216 15.0503 3.04262 16.4436L3.66472 16.1325C3.04525 14.8355 2.73304 13.4132 2.7523 11.9759C2.77157 10.5387 3.1218 9.12523 3.77582 7.84529L3.77026 7.83417Z" fill="#4351BF"/>
<path d="M16.9836 3.32394C15.6506 2.54632 14.1509 2.10197 12.6123 2.00198L12.5679 2.72407C14.0095 2.79186 15.4159 3.19212 16.6772 3.89361C17.9385 4.59507 19.0206 5.57874 19.8386 6.76771L20.3108 6.4511C19.4577 5.16604 18.319 4.09575 16.9836 3.32394Z" fill="#09A6F6"/>
<path fill-rule="evenodd" clip-rule="evenodd" d="M11.9909 18.8709C15.7235 18.8709 18.7451 15.8382 18.7451 12.1C18.7429 10.7633 18.3445 9.45729 17.6001 8.34694C16.8557 7.23664 15.799 6.37195 14.5632 5.8622C13.3275 5.35244 11.9684 5.22047 10.6577 5.483C9.34706 5.74554 8.14363 6.39077 7.19959 7.33714C6.25556 8.28351 5.61329 9.48853 5.35399 10.7999C5.09469 12.1112 5.22999 13.47 5.7428 14.7044C6.25561 15.9388 7.12289 16.9935 8.23502 17.7351C9.34715 18.4767 10.6542 18.872 11.9909 18.8709ZM11.9909 18.1488C13.5922 18.1474 15.1273 17.5098 16.2585 16.3765C17.3898 15.2432 18.0245 13.7069 18.0231 12.1056C18.0215 10.5042 17.384 8.96914 16.2508 7.8379C15.1174 6.70666 13.581 6.07196 11.9798 6.07342C10.4109 6.12245 8.92287 6.7805 7.83098 7.90808C6.73909 9.03565 6.12924 10.5441 6.13068 12.1138C6.13212 13.6833 6.74476 15.1907 7.83872 16.3162C8.93268 17.4418 10.4219 18.0971 11.9909 18.1432V18.1488Z" fill="url(#paint1_linear_364_11976)"/>
<path fill-rule="evenodd" clip-rule="evenodd" d="M12.0011 17.5544C12.7384 17.5626 13.4699 17.4252 14.154 17.1503C14.8381 16.8756 15.4613 16.4686 15.988 15.9526C16.5147 15.4368 16.9345 14.8222 17.2235 14.144C17.5125 13.4658 17.6651 12.7372 17.6723 12C17.6723 8.93397 15.1339 6.44557 12.0011 6.44557C11.2639 6.4375 10.5324 6.57481 9.84838 6.84966C9.16426 7.12452 8.54106 7.5315 8.01436 8.04736C7.48767 8.56322 7.06782 9.17783 6.77882 9.85607C6.48981 10.5343 6.33732 11.2628 6.33008 12C6.33008 15.066 8.86846 17.5544 12.0011 17.5544ZM12.0011 16.9602C14.7951 16.9602 17.0668 14.7384 17.0668 12C17.0603 11.3416 16.9241 10.691 16.6658 10.0852C16.4076 9.47944 16.0327 8.93058 15.5621 8.46992C15.0916 8.00924 14.535 7.64583 13.924 7.40046C13.313 7.15509 12.6596 7.03256 12.0011 7.0399C9.20727 7.0399 6.93551 9.26167 6.93551 12C6.94203 12.6585 7.07828 13.3091 7.33647 13.9149C7.59465 14.5205 7.96971 15.0694 8.44017 15.5301C8.91065 15.9907 9.46735 16.3542 10.0783 16.5996C10.6894 16.845 11.3427 16.9674 12.0011 16.9602Z" fill="url(#paint2_linear_364_11976)"/>
<path fill-rule="evenodd" clip-rule="evenodd" d="M11.9911 20.3317C16.5347 20.3317 20.2116 16.6436 20.2116 12.0945C20.2116 7.54536 16.5347 3.85719 11.9911 3.85719C7.45311 3.85719 3.77051 7.54536 3.77051 12.0945C3.77051 16.6491 7.45311 20.3317 11.9911 20.3317ZM11.9911 19.7485C16.2125 19.7485 19.634 16.3214 19.634 12.0945C19.6823 11.0611 19.5205 10.0287 19.1582 9.05974C18.7961 8.09074 18.2411 7.20529 17.5269 6.45694C16.8127 5.7086 15.9542 5.11291 15.0031 4.7059C14.0521 4.29891 13.0283 4.08907 11.9939 4.08907C10.9594 4.08907 9.93574 4.29891 8.98467 4.7059C8.03363 5.11291 7.17505 5.7086 6.46084 6.45694C5.74663 7.20529 5.19165 8.09074 4.82948 9.05974C4.4673 10.0287 4.30545 11.0611 4.35373 12.0945C4.35373 16.3214 7.77527 19.7485 11.9911 19.7485Z" fill="#208CFC"/>
<path fill-rule="evenodd" clip-rule="evenodd" d="M11.99 19.4985C16.0447 19.4985 19.333 16.1992 19.333 12.1389C19.333 8.07303 16.0447 4.77924 11.99 4.77924C7.93522 4.77924 4.64697 8.07303 4.64697 12.1389C4.64697 16.1992 7.93522 19.4985 11.99 19.4985ZM11.99 19.243C15.9058 19.243 19.083 16.0603 19.083 12.1334C19.083 8.21189 15.9058 5.02919 11.99 5.02919C11.0572 5.02992 10.1339 5.21443 9.27259 5.57219C8.41127 5.92995 7.62889 6.45394 6.97016 7.11421C6.31144 7.77447 5.78929 8.55808 5.43355 9.42022C5.07781 10.2823 4.89546 11.2062 4.89693 12.1389C4.89693 16.0603 8.07408 19.2486 11.99 19.2486V19.243Z" fill="#185DCE"/>
<path fill-rule="evenodd" clip-rule="evenodd" d="M11.9907 16.3714C12.5476 16.371 13.0989 16.261 13.6133 16.0475C14.1277 15.8341 14.5951 15.5213 14.9886 15.1273C15.3822 14.7332 15.6941 14.2656 15.9069 13.7509C16.1198 13.2363 16.2291 12.6847 16.2288 12.1278C16.2284 11.5709 16.1183 11.0195 15.9049 10.5051C15.6914 9.99074 15.3787 9.52338 14.9847 9.12987C14.5906 8.73634 14.1229 8.42426 13.6082 8.21148C13.0935 7.9987 12.542 7.88936 11.9851 7.88973C10.8604 7.89046 9.782 8.33797 8.98721 9.13379C8.19243 9.92969 7.74633 11.0086 7.74707 12.1333C7.74781 13.2581 8.19532 14.3365 8.99115 15.1312C9.78692 15.9261 10.866 16.3722 11.9907 16.3714ZM11.9907 14.494C12.633 14.494 13.2489 14.2389 13.7032 13.7846C14.1573 13.3305 14.4124 12.7145 14.4124 12.0722C14.4124 11.43 14.1573 10.814 13.7032 10.3598C13.2489 9.90559 12.633 9.65053 11.9907 9.65053C11.3484 9.65053 10.7324 9.90559 10.2782 10.3598C9.82412 10.814 9.56893 11.43 9.56893 12.0722C9.56893 12.7145 9.82412 13.3305 10.2782 13.7846C10.7324 14.2389 11.3484 14.494 11.9907 14.494Z" fill="url(#paint3_linear_364_11976)"/>
<path d="M4.55932 10.4226L3.43732 10.1893C3.16815 11.4763 3.19162 12.8074 3.506 14.0841C3.82038 15.3609 4.41763 16.5506 5.25363 17.5656L6.03125 16.9157C5.31876 16.0108 4.81696 14.9584 4.56232 13.8353C4.3077 12.712 4.30668 11.5462 4.55932 10.4226Z" fill="#D9D9D9"/>
<path d="M11.985 3.44616C9.95425 3.4503 7.98176 4.12599 6.375 5.368L6.95822 6.06786C8.41001 4.94114 10.1973 4.333 12.035 4.34042C13.9235 4.34042 15.662 4.96252 17.034 6.01231L17.6116 5.32356C15.9944 4.09434 14.0163 3.43428 11.985 3.44616Z" fill="url(#paint4_linear_364_11976)"/>
<path d="M11.3069 18.4543C9.84963 18.2707 8.49915 17.5936 7.48043 16.5354C6.46169 15.4773 5.83618 14.102 5.70804 12.6388L4.81934 12.7221C4.9699 14.3844 5.68442 15.9453 6.84429 17.1455C8.00417 18.3459 9.53961 19.1134 11.1958 19.3208L11.3069 18.4543Z" fill="#46A5FB"/>
<path d="M14.4455 19.5319C15.5746 19.178 16.6081 18.571 17.4672 17.7573C18.3262 16.9436 18.9884 15.9445 19.403 14.8362C19.8176 13.7279 19.9738 12.5397 19.8597 11.3618C19.7457 10.184 19.3642 9.04782 18.7446 8.03971L19.4945 7.58424C20.1789 8.7063 20.5988 9.96949 20.7222 11.2781C20.8457 12.5866 20.6695 13.9061 20.2069 15.1363C19.7444 16.3666 19.0076 17.4754 18.0527 18.3784C17.0977 19.2815 15.9496 19.9552 14.6954 20.3484L14.4399 19.5319H14.4455Z" fill="#75CEFE"/>
<path d="M19.0782 14.4329C18.6172 15.7659 17.7951 16.9323 16.7231 17.81L17.5119 18.782C18.7762 17.7488 19.7266 16.3829 20.2558 14.8383L19.0782 14.4329Z" fill="#FCB5FD"/>
<path d="M8.66895 10.3337V14.2218H9.22439V11.3057L9.56876 14.2218H9.99088L10.3352 11.3057V14.2218H10.8907V10.3337H10.0132L9.77988 12.3832L9.5466 10.3337H8.66895Z" fill="#262675"/>
<path fill-rule="evenodd" clip-rule="evenodd" d="M12.3012 10.3337C12.5566 10.3281 13.0565 10.467 13.0565 11.1057V11.7168C13.0399 11.8389 12.9454 12.1056 12.6677 12.1333C12.8455 12.1666 13.1121 12.361 13.1121 12.772V13.733C13.101 13.8996 13.001 14.2218 12.6677 14.2218H11.4458V10.3337H12.3012ZM12.0012 10.8891V12H12.3012C12.3451 11.9816 12.3827 11.9509 12.4093 11.9113C12.436 11.8718 12.4505 11.8254 12.4511 11.7778V11.1001C12.44 11.0279 12.3955 10.8891 12.2567 10.8891H12.0012ZM12.0012 13.6663V12.5555H12.2623C12.4011 12.5555 12.4511 12.7277 12.4567 12.8165V13.3941C12.4567 13.5552 12.3567 13.6441 12.3122 13.6663H12.0012ZM14.834 10.3337H13.6676V14.2218H14.834C15.1116 14.2218 15.3339 13.9885 15.3339 13.6997V10.8558C15.3339 10.5669 15.1116 10.3337 14.834 10.3337ZM14.6062 10.8891H14.223V13.6663H14.6062C14.6618 13.6663 14.7007 13.5108 14.7007 13.3164V11.2391C14.7007 11.0447 14.6618 10.8891 14.6062 10.8891Z" fill="#262675"/>
<defs>
<linearGradient id="paint0_linear_364_11976" x1="17.8797" y1="3.04392" x2="6.33105" y2="20.2952" gradientUnits="userSpaceOnUse">
<stop stop-color="#3F52B8"/>
<stop offset="0.73" stop-color="#FB8FCE"/>
<stop offset="1" stop-color="#407ADE"/>
</linearGradient>
<linearGradient id="paint1_linear_364_11976" x1="19.0173" y1="4.55697" x2="4.05721" y2="19.4297" gradientUnits="userSpaceOnUse">
<stop offset="0.07" stop-color="#2688EE"/>
<stop offset="0.25" stop-color="#9AFEFF"/>
<stop offset="0.41" stop-color="#AC66F7"/>
<stop offset="0.62" stop-color="#F4FFFB"/>
<stop offset="0.87" stop-color="#80FEFE"/>
</linearGradient>
<linearGradient id="paint2_linear_364_11976" x1="22.2734" y1="11.6901" x2="1.46054" y2="11.6901" gradientUnits="userSpaceOnUse">
<stop stop-color="#D9D9D9"/>
<stop offset="0.16" stop-color="#3D80F9"/>
<stop offset="0.26" stop-color="#88E4FF"/>
<stop offset="0.5" stop-color="#556AD5"/>
<stop offset="0.64" stop-color="#FFF3FF"/>
<stop offset="0.8" stop-color="#FEE0FB"/>
</linearGradient>
<linearGradient id="paint3_linear_364_11976" x1="21.1616" y1="11.9935" x2="2.02603" y2="11.9935" gradientUnits="userSpaceOnUse">
<stop stop-color="#7791FF"/>
<stop offset="0.16" stop-color="#7498F9"/>
<stop offset="0.34" stop-color="#8189F6"/>
<stop offset="0.53" stop-color="#FDF7FB"/>
<stop offset="0.7" stop-color="#F0AEF1"/>
<stop offset="1" stop-color="#EFB1F0"/>
</linearGradient>
<linearGradient id="paint4_linear_364_11976" x1="22.5236" y1="15.0083" x2="1.97505" y2="15.1793" gradientUnits="userSpaceOnUse">
<stop stop-color="#22E2FD"/>
<stop offset="1" stop-color="#5B96E5"/>
</linearGradient>
</defs>
</svg>

<svg xmlns="http://www.w3.org/2000/svg" width="24" height="24" fill="none" viewBox="0 0 24 24">
    <path fill="url(#MBD__a)" d="M12.002 17.554c3.067 0 5.554-2.362 5.554-5.276C17.556 9.363 15.07 7 12.002 7s-5.555 2.362-5.555 5.277 2.487 5.276 5.555 5.276"/>
    <path fill="#114ED2" fill-rule="evenodd" d="M12.135 21.998c5.444 0 9.865-4.427 9.865-9.887s-4.416-9.887-9.865-9.887a9.876 9.876 0 0 0-9.87 9.887c0 5.46 4.416 9.887 9.87 9.887m0-.278c5.294 0 9.587-4.304 9.587-9.609s-4.293-9.61-9.587-9.61a9.6 9.6 0 0 0-9.592 9.61c0 5.305 4.293 9.61 9.592 9.61" clip-rule="evenodd"/>
    <path fill="#7954F7" d="M21.283 14.083a9.4 9.4 0 0 1-5.404 6.61l.189.433a9.99 9.99 0 0 0 5.665-6.943l-.444-.1z"/>
    <path fill="#4351BF" d="m3.77 7.834-.7-.35a10.03 10.03 0 0 0-.027 8.96l.622-.311a9.35 9.35 0 0 1 .11-8.288z"/>
    <path fill="#09A6F6" d="M16.984 3.324a9.95 9.95 0 0 0-4.372-1.322l-.044.722a9.36 9.36 0 0 1 7.27 4.044l.473-.317a10 10 0 0 0-3.327-3.127"/>
    <path fill="url(#MBD__b)" fill-rule="evenodd" d="M11.99 18.87a6.76 6.76 0 1 0-.01-13.52 6.76 6.76 0 0 0 .01 13.52m0-.721a6.037 6.037 0 1 0-.01-12.076 6.038 6.038 0 0 0 .01 12.07z" clip-rule="evenodd"/>
    <path fill="url(#MBD__c)" fill-rule="evenodd" d="M12.001 17.554a5.61 5.61 0 0 0 5.223-3.41A5.6 5.6 0 0 0 17.672 12c0-3.066-2.538-5.554-5.67-5.554A5.61 5.61 0 0 0 6.33 12c0 3.066 2.538 5.554 5.671 5.554m0-.594c2.794 0 5.066-2.222 5.066-4.96A5.01 5.01 0 0 0 12 7.04c-2.794 0-5.065 2.222-5.065 4.96A5.01 5.01 0 0 0 12 16.96" clip-rule="evenodd"/>
    <path fill="#208CFC" fill-rule="evenodd" d="M11.991 20.332c4.544 0 8.22-3.688 8.22-8.237 0-4.55-3.676-8.238-8.22-8.238-4.538 0-8.22 3.688-8.22 8.238 0 4.554 3.682 8.237 8.22 8.237m0-.584c4.221 0 7.643-3.427 7.643-7.654a7.646 7.646 0 0 0-7.64-8.005 7.65 7.65 0 0 0-7.64 8.006c0 4.226 3.421 7.653 7.637 7.653" clip-rule="evenodd"/>
    <path fill="#185DCE" fill-rule="evenodd" d="M11.99 19.499c4.055 0 7.343-3.3 7.343-7.36 0-4.066-3.288-7.36-7.343-7.36s-7.343 3.294-7.343 7.36c0 4.06 3.288 7.36 7.343 7.36m0-.256c3.916 0 7.093-3.183 7.093-7.11 0-3.921-3.177-7.104-7.093-7.104a7.1 7.1 0 0 0-7.093 7.11c0 3.921 3.177 7.11 7.093 7.11z" clip-rule="evenodd"/>
    <path fill="url(#MBD__d)" fill-rule="evenodd" d="M11.99 16.371a4.24 4.24 0 1 0-.005-8.48 4.24 4.24 0 0 0 .006 8.48m0-1.877a2.422 2.422 0 1 0 0-4.843 2.422 2.422 0 0 0 0 4.843" clip-rule="evenodd"/>
    <path fill="#D9D9D9" d="m4.56 10.423-1.123-.234a8.78 8.78 0 0 0 1.817 7.377l.777-.65a7.75 7.75 0 0 1-1.472-6.493"/>
    <path fill="url(#MBD__e)" d="M11.985 3.446a9.2 9.2 0 0 0-5.61 1.922l.583.7a8.23 8.23 0 0 1 5.077-1.728c1.889 0 3.627.623 4.999 1.672l.578-.688a9.2 9.2 0 0 0-5.627-1.878"/>
    <path fill="#46A5FB" d="M11.307 18.454a6.426 6.426 0 0 1-5.599-5.815l-.889.083a7.315 7.315 0 0 0 6.377 6.599z"/>
    <path fill="#75CEFE" d="M14.446 19.532A7.777 7.777 0 0 0 18.745 8.04l.75-.456a8.654 8.654 0 0 1-4.8 12.764l-.255-.816z"/>
    <path fill="#FCB5FD" d="M19.078 14.433a7.56 7.56 0 0 1-2.355 3.377l.789.972a8.76 8.76 0 0 0 2.744-3.944z"/>
    <path fill="#262675" d="M8.669 10.334v3.888h.555v-2.916l.345 2.916h.422l.344-2.916v2.916h.556v-3.888h-.878l-.233 2.05-.233-2.05z"/>
    <path fill="#262675" fill-rule="evenodd" d="M12.301 10.334c.256-.006.755.133.755.772v.61c-.016.123-.11.39-.388.417.178.034.444.228.444.639v.961c-.011.167-.111.489-.444.489h-1.222v-3.888zm-.3.555V12h.3a.24.24 0 0 0 .15-.222V11.1c-.011-.072-.056-.21-.194-.21zm0 2.777v-1.11h.261c.14 0 .19.172.195.26v.578c0 .161-.1.25-.145.272zm2.833-3.332h-1.166v3.888h1.166a.51.51 0 0 0 .5-.522v-2.844a.51.51 0 0 0-.5-.522m-.228.555h-.383v2.777h.383c.056 0 .095-.155.095-.35V11.24c0-.194-.04-.35-.095-.35" clip-rule="evenodd"/>
    <defs>
        <linearGradient id="MBD__a" x1="17.88" x2="6.331" y1="3.044" y2="20.295" gradientUnits="userSpaceOnUse">
            <stop stop-color="#3F52B8"/>
            <stop offset=".73" stop-color="#FB8FCE"/>
            <stop offset="1" stop-color="#407ADE"/>
        </linearGradient>
        <linearGradient id="MBD__b" x1="19.017" x2="4.057" y1="4.557" y2="19.43" gradientUnits="userSpaceOnUse">
            <stop offset=".07" stop-color="#2688EE"/>
            <stop offset=".25" stop-color="#9AFEFF"/>
            <stop offset=".41" stop-color="#AC66F7"/>
            <stop offset=".62" stop-color="#F4FFFB"/>
            <stop offset=".87" stop-color="#80FEFE"/>
        </linearGradient>
        <linearGradient id="MBD__c" x1="22.273" x2="1.461" y1="11.69" y2="11.69" gradientUnits="userSpaceOnUse">
            <stop stop-color="#D9D9D9"/>
            <stop offset=".16" stop-color="#3D80F9"/>
            <stop offset=".26" stop-color="#88E4FF"/>
            <stop offset=".5" stop-color="#556AD5"/>
            <stop offset=".64" stop-color="#FFF3FF"/>
            <stop offset=".8" stop-color="#FEE0FB"/>
        </linearGradient>
        <linearGradient id="MBD__d" x1="21.162" x2="2.026" y1="11.993" y2="11.993" gradientUnits="userSpaceOnUse">
            <stop stop-color="#7791FF"/>
            <stop offset=".16" stop-color="#7498F9"/>
            <stop offset=".34" stop-color="#8189F6"/>
            <stop offset=".53" stop-color="#FDF7FB"/>
            <stop offset=".7" stop-color="#F0AEF1"/>
            <stop offset="1" stop-color="#EFB1F0"/>
        </linearGradient>
        <linearGradient id="MBD__e" x1="22.524" x2="1.975" y1="15.008" y2="15.179" gradientUnits="userSpaceOnUse">
            <stop stop-color="#22E2FD"/>
            <stop offset="1" stop-color="#5B96E5"/>
        </linearGradient>
    </defs>
</svg>
